X: 1
T: Dennis Murphy's Jig
S: Simon Wells 2005-8-4
M: 6/8
L: 1/8
K: Amix
|: cAA cec  | dfd ced | Caa cec  | d2e fed | cAA cec  | dfd cec | B2g gfe |1 d3 ded :| 2 d3 dcB ||
|: A2a a^ga | A2g gfg | A2a a^ga | efg edB | A2a a^ga | A2g gfe | faf gfe |  d3 dcB |
|  A2a a^ga | A2g gfg | A2a a^ga | efg efg | agf gfe  | fed edc | B2g gfe |  d3 ded |]
